packages/katcn/src/icons/svg/brackets.svg

<svg width="24" height="25" viewBox="0 0 24 25" fill="none" xmlns="http://www.w3.org/2000/svg">
<path d="M5.34831 9.34618C5.34831 7.45668 6.96629 5.96496 8.98876 5.96496C9.59551 5.96496 10 5.56717 10 4.97049C10 4.3738 9.59551 3.97601 8.98876 3.97601C5.85393 3.97601 3.32584 6.36275 3.32584 9.34618V9.94286C3.32584 10.8379 2.7191 11.7329 1.70787 12.0313C1.30337 12.1307 1 12.5285 1 12.9263C1 13.3241 1.30337 13.7219 1.70787 13.9208C2.7191 14.2191 3.32584 15.0147 3.32584 16.0092V16.6058C3.32584 19.5893 5.85393 21.976 8.98876 21.976C9.59551 21.976 10 21.5782 10 20.9815C10 20.3849 9.59551 19.9871 8.98876 19.9871C6.96629 19.9871 5.34831 18.4953 5.34831 16.6058V15.9097C5.34831 14.7163 4.8427 13.6224 4.03371 12.9263C4.8427 12.1307 5.34831 11.0368 5.34831 9.94286V9.34618Z" fill="black"/>
<path d="M22.2921 11.976C21.2809 11.676 20.6742 10.876 20.6742 9.87601V9.37601C20.6742 6.37601 18.1461 3.97601 15.0112 3.97601C14.4045 3.97601 14 4.37601 14 4.97601C14 5.57601 14.4045 5.97601 15.0112 5.97601C17.0337 5.97601 18.6517 7.47601 18.6517 9.37601V9.97601C18.6517 11.176 19.1573 12.276 19.9663 12.976C19.1573 13.776 18.6517 14.876 18.6517 15.976V16.576C18.6517 18.476 17.0337 19.976 15.0112 19.976C14.4045 19.976 14 20.376 14 20.976C14 21.576 14.4045 21.976 15.0112 21.976C18.1461 21.976 20.6742 19.576 20.6742 16.576V15.976C20.6742 15.076 21.2809 14.176 22.2921 13.876C22.6966 13.776 23 13.376 23 12.976C23 12.576 22.6966 12.176 22.2921 11.976Z" fill="black"/>
</svg>

<svg xmlns="http://www.w3.org/2000/svg" fill="none" viewBox="0 0 24 25"><path fill="#000" d="M5.348 9.346c0-1.89 1.618-3.381 3.64-3.381.608 0 1.012-.398 1.012-.995 0-.596-.404-.994-1.011-.994-3.135 0-5.663 2.387-5.663 5.37v.597c0 .895-.607 1.79-1.618 2.088a.96.96 0 0 0-.708.895c0 .398.303.796.708.995 1.011.298 1.618 1.094 1.618 2.088v.597c0 2.983 2.528 5.37 5.663 5.37.607 0 1.011-.398 1.011-.994 0-.597-.404-.995-1.011-.995-2.023 0-3.64-1.492-3.64-3.381v-.696c0-1.194-.506-2.288-1.315-2.984.809-.795 1.314-1.89 1.314-2.983zm16.944 2.63c-1.011-.3-1.618-1.1-1.618-2.1v-.5c0-3-2.528-5.4-5.663-5.4-.606 0-1.011.4-1.011 1s.405 1 1.011 1c2.023 0 3.64 1.5 3.64 3.4v.6c0 1.2.506 2.3 1.315 3-.809.8-1.314 1.9-1.314 3v.6c0 1.9-1.618 3.4-3.64 3.4-.607 0-1.012.4-1.012 1s.405 1 1.011 1c3.135 0 5.663-2.4 5.663-5.4v-.6c0-.9.607-1.8 1.618-2.1.405-.1.708-.5.708-.9s-.303-.8-.708-1"/></svg>
